lib/functional/media/newspaper-clipping.svg

<svg xmlns="http://www.w3.org/2000/svg" fill="none" stroke="currentColor" aria-hidden="true" viewBox="0 0 32 32"><g id="Icon-NewspaperClipping"><g clip-path="url(#clip0_12_3256)"><g id="size=md (32px)"><path id="Vector" stroke-linecap="round" stroke-linejoin="round" stroke-width="2" d="M4 27V7C4 6.73478 4.10536 6.48043 4.29289 6.29289C4.48043 6.10536 4.73478 6 5 6H27C27.2652 6 27.5196 6.10536 27.7071 6.29289C27.8946 6.48043 28 6.73478 28 7V27L24 25L20 27L16 25L12 27L8 25L4 27Z"/><path id="Vector_2" stroke-linecap="round" stroke-linejoin="round" stroke-width="2" d="M18 14H24"/><path id="Vector_3" stroke-linecap="round" stroke-linejoin="round" stroke-width="2" d="M18 18H24"/><path id="Vector_4" stroke-linecap="round" stroke-linejoin="round" stroke-width="2" d="M14 12H8V20H14V12Z"/></g></g></g><defs><clipPath id="clip0_12_3256"><rect width="32" height="32" fill="white" rx="5"/></clipPath></defs></svg>

<svg xmlns="http://www.w3.org/2000/svg" fill="none" stroke="currentColor" aria-hidden="true" viewBox="0 0 32 32"><g stroke="#101828" stroke-linecap="round" stroke-linejoin="round" stroke-width="2" clip-path="url(#a)"><path d="M4 27V7a1 1 0 0 1 1-1h22a1 1 0 0 1 1 1v20l-4-2-4 2-4-2-4 2-4-2-4 2Zm14-13h6m-6 4h6"/><path d="M14 12H8v8h6v-8Z"/></g><defs><clipPath id="a"><rect width="32" height="32" fill="#fff" rx="5"/></clipPath></defs></svg>
